X: 15
T: Dr. Gilbert's
Z: Shelley
S: https://thesession.org/tunes/129#setting53125
R: reel
M: 4/4
L: 1/8
K: Emin
|:gf|eBBA B3c|dBA=c BAGF|EDB,D G2FG|EDB,E DB,A,G,|
B,EED EDB,D|GEED EFGA|(3Bcd ed Bdgb|afdf e2:|
|:gf|eBBB gBBB|defg afdf|g2bg fgaf|egfd edBd|
afdf edBc|dBA=c BAGF|EA=cA (3Bcd gb|afdf e2:|

%-------------------- TUNE SEPARATOR --------------------%

